gtk-icons/Papirus-GTK/32x32/apps/shutter.svg

<?xml version="1.0" encoding="UTF-8" standalone="no"?>
<svg
   xmlns:dc="http://purl.org/dc/elements/1.1/"
   xmlns:cc="http://creativecommons.org/ns#"
   xmlns:rdf="http://www.w3.org/1999/02/22-rdf-syntax-ns#"
   xmlns:svg="http://www.w3.org/2000/svg"
   xmlns="http://www.w3.org/2000/svg"
   xmlns:sodipodi="http://sodipodi.sourceforge.net/DTD/sodipodi-0.dtd"
   xmlns:inkscape="http://www.inkscape.org/namespaces/inkscape"
   viewBox="0 0 32 32"
   id="svg2"
   version="1.1"
   inkscape:version="0.91 r"
   sodipodi:docname="shutter.svg"
   width="32"
   height="32">
  <metadata
     id="metadata98">
    <rdf:RDF>
      <cc:Work
         rdf:about="">
        <dc:format>image/svg+xml</dc:format>
        <dc:type
           rdf:resource="http://purl.org/dc/dcmitype/StillImage" />
        <dc:title></dc:title>
      </cc:Work>
    </rdf:RDF>
  </metadata>
  <sodipodi:namedview
     pagecolor="#ffffff"
     bordercolor="#666666"
     borderopacity="1"
     objecttolerance="10"
     gridtolerance="10"
     guidetolerance="10"
     inkscape:pageopacity="0"
     inkscape:pageshadow="2"
     inkscape:window-width="1535"
     inkscape:window-height="876"
     id="namedview96"
     showgrid="false"
     inkscape:zoom="1"
     inkscape:cx="24"
     inkscape:cy="14.790749"
     inkscape:window-x="65"
     inkscape:window-y="24"
     inkscape:window-maximized="1"
     inkscape:current-layer="svg2" />
  <defs
     id="defs4">
    <clipPath
       id="clipPath-429196716">
      <g
         transform="translate(0,-1004.3622)"
         id="g17">
        <path
           d="m -24,13 c 0,1.105 -0.672,2 -1.5,2 -0.828,0 -1.5,-0.895 -1.5,-2 0,-1.105 0.672,-2 1.5,-2 0.828,0 1.5,0.895 1.5,2 z"
           transform="matrix(15.333333,0,0,11.5,414.99999,878.8622)"
           style="fill:#1890d0"
           id="path19"
           inkscape:connector-curvature="0" />
      </g>
    </clipPath>
  </defs>
  <g
     id="g72"
     transform="matrix(0.9615474,0,0,0.96568828,-7.5789199,-7.6536978)">
    <g
       id="g74"
       clip-path="url(#clipPath-429196716)">
      <!-- color: #eeeeee -->
      <g
         id="g76">
        <path
           style="fill:#37a0f2;fill-opacity:1;fill-rule:nonzero;stroke:none"
           d="M 36.960938,4.0019531 C 31.327015,4.0672444 22.635301,5.6335616 19.917969,8.8710938 l -0.0059,0 C 17.743851,12.023437 17.467724,24.357805 18.03125,23.597656 22.644683,17.335737 33.704129,9.6023371 40.308594,6.4941406 43.874676,4.8083786 41.342878,3.951171 36.960938,4.0019531 Z M 31.521484,14.216797 c -3.813143,0.274537 -10.519642,6.767717 -9.578125,6.730469 7.799361,-0.269019 12.670614,0.176953 18.75586,2.068359 0.902748,0.280055 -0.972691,-8.162841 -9.177735,-8.798828 z m -4.125,6.759765 c -0.201151,0.01048 -0.284468,0.06324 -0.216796,0.160157 4.456975,6.402636 6.722,10.739196 8.4375,16.876953 0.254763,0.910523 6.327391,-5.248472 2.40625,-12.484375 C 36.01233,22.855496 28.804544,20.90321 27.396484,20.976562 Z m 2.320313,5.13086 c -0.04407,-0.01149 -0.07531,0.0094 -0.08984,0.06641 -1.974416,7.550448 -3.797015,12.094645 -7.345703,17.386719 -0.530296,0.780843 8.096895,1.40049 11.048828,-6.285156 l 0.002,0.0039 C 34.108264,33.778178 30.377898,26.279711 29.716797,26.107422 Z m -2.166016,4.824219 c -0.01803,-0.0045 -0.03993,-9.13e-4 -0.06641,0.01172 -7.041993,3.367558 -11.687335,4.91016 -18.0273438,5.605469 -0.9359786,0.107607 4.1524808,7.098278 11.9296878,4.398438 l 0.0078,-0.002 c 3.279517,-1.722708 6.715119,-9.873415 6.15625,-10.013671 z"
           transform="matrix(0.7222387,0,0,0.72485766,6.6680748,7.0974008)"
           id="path78"
           inkscape:connector-curvature="0" />
        <path
           style="fill:#4d4d4d;fill-opacity:1;fill-rule:nonzero;stroke:none"
           d="m 15.916016,11.048828 c -1.423393,0.241823 -7.1360136,4.180389 -5.820313,11.257813 l 0.002,0.0039 c 1.248895,3.615882 9.249573,8.422583 8.972656,7.517578 -2.272102,-7.463534 -3.093222,-12.292242 -2.839843,-18.65625 0.0047,-0.117954 -0.111112,-0.157593 -0.314453,-0.123047 z M 6.7421875,22.195312 c -0.7334782,-0.09648 -2.4523906,7.91606 4.4003905,11.988282 3.54315,1.444421 12.427617,-1.401741 11.566406,-1.794922 -7.112607,-3.206147 -11.281419,-5.772515 -15.9003902,-10.158203 -0.021288,-0.02039 -0.042746,-0.03204 -0.066406,-0.03516 z"
           transform="matrix(0.7222387,0,0,0.72485766,6.6680748,7.0974008)"
           id="path82"
           inkscape:connector-curvature="0" />
      </g>
    </g>
  </g>
  <g
     id="g4726"
     transform="matrix(1.3846283,0,0,1.3795548,-9.2336458,-26.791553)"
     style="fill:#007e00;fill-opacity:1">
    <g
       id="g4728"
       clip-path="url(#clipPath-429196716)"
       style="fill:#007e00;fill-opacity:1">
      <!-- color: #eeeeee -->
      <g
         id="g4730"
         style="fill:#007e00;fill-opacity:1" />
    </g>
  </g>
  <g
     transform="matrix(0.9615474,0,0,0.96571627,-7.5789199,-7.6547891)"
     id="g4768"
     style="fill:#ffffff;fill-opacity:1">
    <g
       clip-path="url(#clipPath-429196716)"
       id="g4770"
       style="fill:#ffffff;fill-opacity:1">
      <!-- color: #eeeeee -->
      <g
         id="g4772"
         style="fill:#ffffff;fill-opacity:1">
        <path
           style="fill:#ffffff;fill-opacity:1;fill-rule:nonzero;stroke:none;opacity:0.1"
           d="M 24.5 2.0019531 C 20.587428 2.0476574 14.553112 3.1438618 12.666016 5.4101562 L 12.660156 5.4101562 C 11.495252 7.117351 11.121424 12.628023 11.191406 14.808594 C 11.235941 12.255825 11.645515 7.8971371 12.660156 6.4101562 L 12.666016 6.4101562 C 14.553112 4.1438618 20.587428 3.0476574 24.5 3.0019531 C 25.874609 2.9858958 26.958427 3.1056329 27.537109 3.34375 C 28.85305 2.4301067 27.175691 1.9706973 24.5 2.0019531 z M 9.8867188 6.9335938 C 8.9600008 7.0922916 5.4152188 9.5244092 5.7285156 13.910156 C 5.9655071 10.158431 9.0334054 8.0797213 9.8867188 7.9335938 C 10.003127 7.913659 10.063398 7.9380183 10.083984 7.9902344 C 10.088689 7.6683421 10.090376 7.3521781 10.103516 7.0195312 C 10.10678 6.9369627 10.027932 6.9094113 9.8867188 6.9335938 z M 10.083984 9.0566406 C 10.036844 12.73269 10.553023 15.823912 11.789062 20.091797 C 11.978675 20.157643 12.104642 20.173864 12.076172 20.080078 C 10.747601 15.681046 10.139984 12.583293 10.083984 9.0566406 z M 20.722656 9.1523438 C 20.069874 9.1997174 19.295018 9.5123686 18.507812 9.9550781 C 16.89835 11.167252 15.369809 12.46135 14.035156 13.75 C 14.011027 13.818153 14.012055 13.865682 14.072266 13.863281 C 14.319522 13.854685 14.542195 13.852167 14.78125 13.845703 C 16.104198 12.503058 18.881482 10.285961 20.722656 10.152344 C 24.853621 10.475096 26.65494 13.650509 27.105469 15.308594 C 27.709823 15.442737 26.392081 9.5952962 20.722656 9.1523438 z M 3.515625 14.736328 C 3.2831033 14.705501 2.9140261 15.861804 3.0273438 17.394531 C 3.0911432 16.400011 3.3385242 15.712848 3.515625 15.736328 C 3.532056 15.738508 3.5457629 15.747448 3.5605469 15.761719 C 6.5517562 18.624512 9.2935333 20.38215 13.652344 22.425781 C 14.351786 22.174467 14.775653 21.950309 14.603516 21.871094 C 13.634643 21.430871 12.762984 21.008519 11.933594 20.589844 C 11.982932 20.756456 12.024699 20.909645 12.076172 21.080078 C 12.219771 21.553124 9.1613059 19.794592 7.2402344 17.820312 C 5.9720449 16.922233 4.7880869 15.936559 3.5605469 14.761719 C 3.5457629 14.747448 3.532056 14.738508 3.515625 14.736328 z M 18.28125 14.84375 C 18.298765 14.869738 18.316575 14.895979 18.333984 14.921875 C 19.909092 15.143362 23.994777 16.403865 25.238281 18.070312 C 25.798164 19.111738 26.054431 20.117404 26.123047 21.058594 C 26.20942 19.848382 26.002704 18.492198 25.238281 17.070312 C 24.712455 16.36564 23.674388 15.731636 22.533203 15.21875 C 21.183436 15.004433 19.796078 14.891002 18.28125 14.84375 z M 19.398438 17.554688 C 18.03076 22.819098 16.765638 25.995107 14.306641 29.691406 C 14.235474 29.797033 14.453796 29.885282 14.783203 29.941406 C 16.931812 26.545843 18.130891 23.445075 19.408203 18.521484 C 19.418293 18.481613 19.440093 18.466609 19.470703 18.474609 C 19.861711 18.577323 21.782726 22.389403 22.015625 25.035156 C 22.176088 23.78621 21.67624 21.975147 21.066406 20.431641 C 20.57994 19.503044 20.027564 18.552919 19.398438 17.554688 z M 17.966797 20.851562 C 17.954277 20.848462 17.938302 20.850575 17.919922 20.859375 C 16.498562 21.544507 15.225568 22.109583 14.015625 22.595703 C 14.214767 22.687903 14.39743 22.777455 14.603516 22.871094 C 15.107045 23.102811 10.81919 24.547245 7.9804688 24.396484 C 7.1512645 24.552303 6.3041905 24.683293 5.4003906 24.783203 C 5.2193334 24.804184 5.3924012 25.210459 5.8105469 25.728516 C 9.944041 25.227007 13.104799 24.166573 17.730469 21.949219 C 17.966954 21.316957 18.070315 20.877749 17.966797 20.851562 z "
           transform="matrix(1.0399903,0,0,1.0355008,7.8820034,7.9265405)"
           id="path4774" />
      </g>
    </g>
  </g>
  <g
     style="fill:#000000;fill-opacity:1"
     id="g4779"
     transform="matrix(0.9615474,0,0,0.96571627,-7.5789199,-7.6547891)">
    <g
       style="fill:#000000;fill-opacity:1"
       id="g4781"
       clip-path="url(#clipPath-429196716)">
      <!-- color: #eeeeee -->
      <g
         style="fill:#000000;fill-opacity:1"
         id="g4783">
        <path
           style="fill:#000000;fill-opacity:1;fill-rule:nonzero;stroke:none;opacity:0.3"
           d="M 27.537109 2.34375 C 27.356407 2.4692099 27.125184 2.6036167 26.826172 2.7460938 C 22.239591 4.9218524 14.559345 10.335364 11.355469 14.71875 C 11.266889 14.83919 11.211881 14.446555 11.191406 13.808594 C 11.169917 15.043404 11.227876 15.892235 11.355469 15.71875 C 12.053488 14.763754 12.990469 13.758678 14.035156 12.75 C 14.208469 12.26049 16.395675 10.142904 18.507812 8.9550781 C 21.420941 6.7610411 24.515481 4.8422276 26.826172 3.7460938 C 28.184022 3.0990887 28.239516 2.6327771 27.537109 2.34375 z M 10.083984 6.9902344 C 10.078734 7.3494986 10.078442 7.7075726 10.083984 8.0566406 C 10.088386 7.713427 10.089478 7.3749259 10.103516 7.0195312 C 10.104089 7.0050277 10.088371 7.0013608 10.083984 6.9902344 z M 16.013672 12.816406 C 15.620028 12.820803 15.195531 12.834439 14.779297 12.845703 C 14.200756 13.433117 13.873243 13.871218 14.072266 13.863281 C 15.62312 13.809362 16.996283 13.803668 18.28125 13.84375 C 18.091204 13.561765 17.911781 13.289743 17.708984 12.996094 C 17.661988 12.92825 17.719682 12.890113 17.859375 12.882812 C 18.468292 12.850839 20.637171 13.371292 22.525391 14.21875 C 24.032093 14.457576 25.505459 14.811715 27.097656 15.310547 C 27.270052 15.364455 27.276288 14.937437 27.105469 14.308594 C 27.102385 14.307912 27.10084 14.311542 27.097656 14.310547 C 23.399905 13.152049 20.347537 12.767999 16.013672 12.816406 z M 5.7285156 12.916016 C 5.6915665 13.508686 5.7192071 14.139167 5.84375 14.814453 L 5.8457031 14.816406 C 6.0653882 15.457527 6.5885812 16.15061 7.2402344 16.820312 C 8.6360647 17.808787 10.152572 18.692753 11.933594 19.591797 C 11.883469 19.422545 11.837003 19.259269 11.789062 19.09375 C 10.698043 18.714962 6.5846442 15.972904 5.8457031 13.816406 L 5.84375 13.814453 C 5.7868864 13.506132 5.7494586 13.207227 5.7285156 12.916016 z M 17.859375 13.882812 C 17.719682 13.890113 17.661988 13.92825 17.708984 13.996094 C 18.336156 14.90424 18.886787 15.742854 19.398438 16.554688 C 19.401467 16.543025 19.405172 16.533167 19.408203 16.521484 C 19.418293 16.481613 19.440093 16.466609 19.470703 16.474609 C 19.695619 16.533692 20.431323 17.829225 21.060547 19.417969 C 22.134281 21.465556 22.913935 23.448498 23.568359 25.808594 C 23.708908 26.314919 26.388159 23.695067 26.123047 20.058594 C 25.902119 23.16004 23.695631 25.267092 23.568359 24.808594 C 22.462253 20.819566 21.010853 17.903609 18.333984 13.921875 C 18.140003 13.894598 17.966597 13.877182 17.859375 13.882812 z M 3.0273438 16.392578 C 2.9076438 18.25849 3.4659117 21.269419 6.5703125 23.128906 C 6.9593168 23.288755 7.4474136 23.368174 7.9804688 23.396484 C 10.016739 23.013842 11.917106 22.438827 14.015625 21.595703 C 13.8926 21.538744 13.772824 21.482269 13.652344 21.425781 C 11.921605 22.047646 8.3227148 22.849 6.5703125 22.128906 C 3.982796 20.579025 3.1618289 18.217797 3.0273438 16.392578 z M 17.966797 20.851562 C 17.954277 20.848462 17.938302 20.850575 17.919922 20.859375 C 17.854282 20.891015 17.795516 20.916084 17.730469 20.947266 C 17.080754 22.685097 15.36195 25.976803 13.691406 26.861328 L 13.685547 26.863281 C 9.788971 28.22676 6.8935685 26.070313 5.8105469 24.728516 C 5.6718895 24.745339 5.5413676 24.767619 5.4003906 24.783203 C 4.7503846 24.858525 8.2845353 29.753188 13.685547 27.863281 L 13.691406 27.861328 C 15.968922 26.655421 18.354913 20.949743 17.966797 20.851562 z M 22.015625 24.035156 C 22.004446 24.12217 21.99832 24.213759 21.980469 24.294922 L 21.978516 24.292969 C 20.324653 28.633313 16.158401 29.175712 14.783203 28.941406 C 14.625328 29.190904 14.475328 29.437841 14.306641 29.691406 C 13.938368 30.238002 19.928496 30.672973 21.978516 25.292969 L 21.980469 25.294922 C 22.060429 24.93137 22.056191 24.495986 22.015625 24.035156 z "
           transform="matrix(1.0399903,0,0,1.0355008,7.8820034,7.9265405)"
           id="path4785" />
      </g>
    </g>
  </g>
  <g
     transform="matrix(0.9615474,0,0,0.96571627,-7.5789199,-8.6544325)"
     id="g4787"
     style="fill:#005000;fill-opacity:1">
    <g
       clip-path="url(#clipPath-429196716)"
       id="g4789"
       style="fill:#005000;fill-opacity:1">
      <!-- color: #eeeeee -->
      <g
         id="g4791"
         style="fill:#005000;fill-opacity:1" />
    </g>
  </g>
  <g
     style="fill:#ff50ff;fill-opacity:1"
     id="g4796"
     transform="matrix(0.9615474,0,0,0.96571627,-7.5789199,-6.6544325)">
    <g
       style="fill:#ff50ff;fill-opacity:1"
       id="g4798"
       clip-path="url(#clipPath-429196716)">
      <!-- color: #eeeeee -->
      <g
         style="fill:#ff50ff;fill-opacity:1"
         id="g4800" />
    </g>
  </g>
</svg>

<?xml version="1.0" encoding="UTF-8" standalone="no"?>
<svg id="svg2" xmlns:rdf="http://www.w3.org/1999/02/22-rdf-syntax-ns#" xmlns="http://www.w3.org/2000/svg" height="32" width="32" version="1.1" xmlns:cc="http://creativecommons.org/ns#" xmlns:dc="http://purl.org/dc/elements/1.1/" viewBox="0 0 32 32">
 <metadata id="metadata98">
  <rdf:RDF>
   <cc:Work rdf:about="">
    <dc:format>image/svg+xml</dc:format>
    <dc:type rdf:resource="http://purl.org/dc/dcmitype/StillImage"/>
    <dc:title/>
   </cc:Work>
  </rdf:RDF>
 </metadata>
 <defs id="defs4">
  <clipPath id="clipPath-429196716">
   <g id="g17" transform="translate(0 -1004.4)">
    <path id="path19" fill="#1890d0" d="m-24 13c0 1.105-0.672 2-1.5 2s-1.5-0.895-1.5-2 0.672-2 1.5-2 1.5 0.895 1.5 2z" transform="matrix(15.333 0 0 11.5 415 878.86)"/>
   </g>
  </clipPath>
 </defs>
 <g id="g72" transform="matrix(.96155 0 0 .96569 -7.5789 -7.6537)">
  <g id="g74" clip-path="url(#clipPath-429196716)"><!-- color: #eeeeee -->
   <g id="g76">
    <path id="path78" d="m36.961 4.002c-5.634 0.0652-14.326 1.6316-17.043 4.8691h-0.0059c-2.168 3.1519-2.444 15.487-1.881 14.727 4.614-6.262 15.673-13.996 22.278-17.104 3.566-1.6856 1.034-2.5428-3.348-2.492zm-5.44 10.215c-3.8131 0.27454-10.52 6.7677-9.5781 6.7305 7.7994-0.26902 12.671 0.17695 18.756 2.0684 0.90275 0.28006-0.97269-8.1628-9.1777-8.7988zm-4.125 6.7598c-0.20115 0.01048-0.28447 0.06324-0.2168 0.16016 4.457 6.4026 6.722 10.739 8.4375 16.877 0.25476 0.91052 6.3274-5.2485 2.4062-12.484-2.011-2.675-9.218-4.627-10.627-4.553zm2.3203 5.1309c-0.04407-0.01149-0.07531 0.0094-0.08984 0.06641-1.9744 7.5504-3.797 12.095-7.3457 17.387-0.5303 0.78084 8.0969 1.4005 11.049-6.2852l0.002 0.0039c0.776-3.502-2.954-11-3.615-11.173zm-2.166 4.8242c-0.01803-0.0045-0.03993-0.000913-0.06641 0.01172-7.042 3.3676-11.687 4.9102-18.027 5.6055-0.93598 0.10761 4.1525 7.0983 11.93 4.3984l0.0078-0.002c3.2795-1.7227 6.7151-9.8734 6.1562-10.014z" transform="matrix(.72224 0 0 .72486 6.6681 7.0974)" fill="#37a0f2"/>
    <path id="path82" d="m15.916 11.049c-1.4234 0.24182-7.136 4.1804-5.8203 11.258l0.002 0.0039c1.2489 3.6159 9.2496 8.4226 8.9727 7.5176-2.2721-7.4635-3.0932-12.292-2.8398-18.656 0.0047-0.11795-0.11111-0.15759-0.31445-0.12305zm-9.1738 11.146c-0.73348-0.09648-2.4524 7.9161 4.4004 11.988 3.5432 1.4444 12.428-1.4017 11.566-1.7949-7.1126-3.2061-11.281-5.7725-15.9-10.158-0.021288-0.02039-0.042746-0.03204-0.066406-0.03516z" transform="matrix(.72224 0 0 .72486 6.6681 7.0974)" fill="#4d4d4d"/>
   </g>
  </g>
 </g>
 <g id="g4726" fill="#007e00" transform="matrix(1.3846 0 0 1.3796 -9.2336 -26.792)">
  <g id="g4728" fill="#007e00" clip-path="url(#clipPath-429196716)"><!-- color: #eeeeee --></g>
 </g>
 <g id="g4768" fill="#fff" transform="matrix(.96155 0 0 .96572 -7.5789 -7.6548)">
  <g id="g4770" fill="#fff" clip-path="url(#clipPath-429196716)"><!-- color: #eeeeee -->
   <g id="g4772" fill="#fff">
    <path id="path4774" opacity=".1" d="m24.5 2.002c-3.913 0.0457-9.947 1.1419-11.834 3.4082h-0.006c-1.165 1.7072-1.539 7.2178-1.469 9.3988 0.045-2.553 0.455-6.9119 1.469-8.3988h0.006c1.887-2.2663 7.921-3.3625 11.834-3.4082 1.375-0.0161 2.458 0.1036 3.037 0.3418 1.316-0.9137-0.361-1.3731-3.037-1.3418zm-14.613 4.9316c-0.9267 0.1587-4.4715 2.5908-4.1582 6.9764 0.237-3.752 3.3049-5.8303 4.1582-5.9764 0.1163-0.0199 0.1763 0.0044 0.1973 0.0566 0.005-0.3219 0.006-0.638 0.02-0.9707 0.003-0.0825-0.076-0.1101-0.2173-0.0859zm0.1973 2.123c-0.047 3.6764 0.469 6.7674 1.705 11.035 0.19 0.066 0.316 0.082 0.287-0.012-1.328-4.399-1.936-7.497-1.992-11.023zm10.639 0.0957c-0.653 0.0474-1.428 0.3601-2.215 0.8028-1.61 1.2119-3.138 2.5059-4.473 3.7949-0.024 0.068-0.023 0.116 0.037 0.113 0.248-0.008 0.47-0.011 0.709-0.017 1.323-1.343 4.1-3.56 5.942-3.694 4.131 0.323 5.932 3.499 6.382 5.157 0.605 0.134-0.713-5.7137-6.382-6.1567zm-17.207 5.5837c-0.2325-0.03-0.6016 1.126-0.4883 2.659 0.0638-0.995 0.3112-1.682 0.4883-1.659 0.0165 0.003 0.0302 0.011 0.0449 0.026 2.9913 2.863 5.733 4.62 10.092 6.664 0.7-0.252 1.124-0.476 0.952-0.555-0.969-0.44-1.841-0.862-2.67-1.281 0.049 0.166 0.091 0.32 0.142 0.49 0.144 0.473-2.9147-1.285-4.8358-3.26-1.2682-0.898-2.4521-1.883-3.6797-3.058-0.0147-0.015-0.0284-0.023-0.0449-0.026zm14.765 0.108c0.018 0.026 0.036 0.052 0.053 0.078 1.575 0.221 5.661 1.482 6.904 3.148 0.56 1.042 0.816 2.047 0.885 2.989 0.086-1.211-0.12-2.567-0.885-3.989-0.526-0.704-1.564-1.338-2.705-1.851-1.35-0.215-2.737-0.328-4.252-0.375zm1.117 2.711c-1.367 5.264-2.632 8.44-5.091 12.136-0.072 0.106 0.147 0.194 0.476 0.25 2.149-3.395 3.348-6.496 4.625-11.42 0.01-0.039 0.032-0.054 0.063-0.046 0.391 0.102 2.312 3.914 2.545 6.56 0.16-1.249-0.34-3.06-0.95-4.603-0.486-0.929-1.038-1.879-1.668-2.877zm-1.431 3.297c-0.013-0.004-0.029-0.001-0.047 0.007-1.421 0.686-2.694 1.251-3.904 1.737 0.199 0.092 0.381 0.181 0.588 0.275 0.503 0.232-3.785 1.676-6.6235 1.525-0.8292 0.156-1.6763 0.287-2.5801 0.387-0.1811 0.021-0.008 0.427 0.4101 0.946 4.1335-0.502 7.2945-1.562 11.92-3.78 0.237-0.632 0.34-1.071 0.237-1.097z" transform="matrix(1.04 0 0 1.0355 7.882 7.9265)" fill="#fff"/>
   </g>
  </g>
 </g>
 <g id="g4779" transform="matrix(.96155 0 0 .96572 -7.5789 -7.6548)">
  <g id="g4781" clip-path="url(#clipPath-429196716)"><!-- color: #eeeeee -->
   <g id="g4783">
    <path id="path4785" opacity=".3" d="m27.537 2.3438c-0.181 0.1254-0.412 0.2598-0.711 0.4023-4.586 2.1758-12.267 7.5889-15.471 11.973-0.088 0.12-0.143-0.272-0.164-0.91-0.021 1.234 0.037 2.083 0.164 1.91 0.698-0.955 1.635-1.96 2.68-2.969 0.173-0.49 2.361-2.607 4.473-3.7949 2.913-2.1941 6.007-4.1129 8.318-5.209 1.358-0.647 1.414-1.1133 0.711-1.4023zm-17.453 4.6464c-0.005 0.3593-0.006 0.7174 0 1.0664 0.004-0.3432 0.005-0.6817 0.02-1.0371 0-0.0145-0.016-0.0181-0.02-0.0293zm5.93 5.8258c-0.394 0.005-0.818 0.018-1.235 0.03-0.578 0.587-0.906 1.025-0.707 1.017 1.551-0.054 2.924-0.059 4.209-0.019-0.19-0.282-0.369-0.554-0.572-0.848-0.047-0.068 0.011-0.106 0.15-0.113 0.609-0.032 2.778 0.488 4.666 1.336 1.507 0.239 2.98 0.593 4.573 1.092 0.172 0.053 0.178-0.374 0.007-1.002-0.003-0.001-0.004 0.003-0.007 0.002-3.698-1.159-6.75-1.543-11.084-1.495zm-10.286 0.1c-0.0369 0.593-0.0093 1.223 0.1153 1.898l0.0019 0.002c0.2197 0.642 0.7429 1.335 1.3945 2.004 1.3959 0.989 2.9128 1.873 4.6938 2.772-0.051-0.169-0.097-0.333-0.145-0.498-1.091-0.379-5.2044-3.121-5.9433-5.278l-0.0019-0.002c-0.0569-0.308-0.0943-0.607-0.1153-0.898zm12.13 0.967c-0.139 0.007-0.197 0.045-0.15 0.113 0.627 0.908 1.178 1.747 1.689 2.559 0.003-0.012 0.007-0.022 0.01-0.034 0.01-0.039 0.032-0.054 0.063-0.046 0.225 0.059 0.96 1.354 1.59 2.943 1.073 2.048 1.853 4.03 2.507 6.391 0.141 0.506 2.82-2.114 2.555-5.75-0.221 3.101-2.427 5.208-2.555 4.75-1.106-3.989-2.557-6.905-5.234-10.887-0.194-0.027-0.367-0.045-0.475-0.039zm-14.832 2.51c-0.1197 1.865 0.4386 4.876 3.543 6.736 0.389 0.16 0.8771 0.239 1.4102 0.267 2.0365-0.382 3.9365-0.957 6.0355-1.8-0.123-0.057-0.243-0.114-0.364-0.17-1.73 0.622-5.3293 1.423-7.0817 0.703-2.5875-1.55-3.4085-3.911-3.543-5.736zm14.94 4.459c-0.013-0.004-0.029-0.001-0.047 0.007-0.066 0.032-0.124 0.057-0.19 0.088-0.649 1.738-2.368 5.03-4.039 5.914l-0.005 0.002c-3.897 1.364-6.7924-0.793-7.8755-2.134-0.1386 0.016-0.2691 0.039-0.4101 0.054-0.65 0.076 2.8841 4.97 8.2856 3.08l0.005-0.002c2.278-1.206 4.664-6.911 4.276-7.009zm4.049 3.183c-0.012 0.087-0.018 0.179-0.036 0.26l-0.001-0.002c-1.654 4.34-5.821 4.883-7.196 4.648-0.158 0.25-0.308 0.497-0.476 0.75-0.369 0.547 5.621 0.982 7.672-4.398l0.001 0.002c0.08-0.364 0.076-0.799 0.036-1.26z" transform="matrix(1.04 0 0 1.0355 7.882 7.9265)"/>
   </g>
  </g>
 </g>
 <g id="g4787" fill="#005000" transform="matrix(.96155 0 0 .96572 -7.5789 -8.6544)">
  <g id="g4789" fill="#005000" clip-path="url(#clipPath-429196716)"><!-- color: #eeeeee --></g>
 </g>
 <g id="g4796" fill="#ff50ff" transform="matrix(.96155 0 0 .96572 -7.5789 -6.6544)">
  <g id="g4798" fill="#ff50ff" clip-path="url(#clipPath-429196716)"><!-- color: #eeeeee --></g>
 </g>
</svg>
